X:1
T:Dolce mia pastorella
T:Luca Marenzio
T:Source : Il secondo Libro delle canzonette alla Napolitana a tre voci---Venetia---G.Vincenti---1587. Editor : André Vierendeels (06/05/17).
T:Notes : Original clefs : G2, C1, F3 Editorial accidentals above tha staff "Seconda impressione" Music collected by Attilio Gualtieri m 19 and 20, in S 2 : rests not in original print  
T:Dolce mia pastorella
T:©
T:©
T:©
C:Luca Marenzio
Z:©
%%score [ 1 2 3 ]
L:1/8
Q:1/4=120
M:4/4
K:F
V:1 treble nm="Soprano 1" snm="S 1"
V:2 treble nm="Soprano 2" snm="S 2"
V:3 bass nm="Bass" snm="B"
V:1
"^1)" B4 B2 B2 | c4 c4 | d4 d4 | z2 f2 g3 f | e2 d2 e4 |[M:2/4] d4 ::[M:4/4] f4 e4 | d4 c4 | %8
w: Dol- ce mia|pa- sto-|rel- la,|che si leg-|gia- dra'e bel-|la,|ten vo-|li'a gl'oc-|
w: Dol- ve vez-|zo- sa'e|ca- ra,|che del mio|ben a- va-|ra,|ten fug-|gi s'io|
 B4 A4 | A4 e2 f2 | g8 | f2 e2 d4- | d4 c4- | c4 f4- | f4 z2 d2 | c3 B A2 d2 | c3 B A2 G2 | A8 | %18
w: chi mie-|i, per- che|cru-|da mi se-|* i,|_ deh,|_ deh,|ba- scia- mi, deh,|ba- scia- mi ben|mi-|
w: ti mi-|ro, ond' io|pian-|go'e so- spi-|* ro,|_ deh,|_ deh,|non vo- ler, deh|non vo- ler o|mam-|
 A4 z2 B2 | B2 c2 d4- | d4 z2 f2 | e3 d c2 f2 | fedc B2 d2- | d2 c4 B2 | A4 !fermata!G4 :| %25
w: o, ch'al-|tro da te,|_ ch'al-|tro da te, non|bra- * * * * mo'e|_ non de-|si- o.|
w: ma, che|mi con- sum',-|* che|mi con- su- m'il|cor _ _ _ _ l'ar-|* den- te|fiam- ma.|
V:2
"^2)""^1)" G4 G2 G2 | A4 A4 | B4 B4 | z2 d2 d2 e2 | ^c2 d4 c2 |[M:2/4] d4 ::[M:4/4] z2 F2 G2 A2 | %7
w: Dol- ce mia|pa- sto-|rel- la,|che si leg-|gia- dra'e bel-|la,|ten vo- gli'a|
w: Dol- c'et a-|ma- ta|vi- sta,|che si l'al-|ma m'at- tri-|sta,|per- che tubar|
 DEFD E2 DC | D2 E2 F4 | F4 c2 d2 | e8 | d2 c2 =B2 c2- | c2 =B2 c4- | c4 d4- | d4 z2 B2 | %15
w: gl'oc- * * * * * *|* * chi|miei, per- che|cru-|da mi se- *|* * i,|_ deh,|_ deh,|
w: _ _ _ _ _ _ _|* ti veg-|gio, ond' ogn'|ho-|ra sto peg- *|* * gio,|_ deh,|_ deh,|
 A3 G F2 B2 | A3 G ^F2 G2 | ^F8 | ^F4 z4 | z4 D4 | D2 E2 F4 | G4 A4- | A2 B2 G4- | G2 A2 ^F2 G2- | %24
w: ba- scia- mi, deh,|ba- scia- mi ben|mi-|o,|ch'al-|tro da te|non bra-|* mo e|_ non de- si-|
w: non vo- ler, deh,|non vo- ler fi-|ni-|re,|chi'è|na- to'al mon-|do sol|_ per te|_ ser- vi- *|
 G2 ^F2 !fermata!G4 :| %25
w: * * o.|
w: * * re.|
V:3
"^3)""^1)""^4)" G,4 G,2 G,2 | F,4 F,4 | B,,4 B,,2 B,2 | B,3 A, G,2 G,2 | A,8 |[M:2/4] D,4 :: %6
w: Dol- ce mia|pa- sto-|rel- la, che|si leg- gia- dra'e|bel-|la,|
w: Quan- do tu|co- gli|fio- ri, e'i|par- go- let- ti'A-|mo-|ri,|
[M:4/4] D4 C4 | B,4 A,4 | G,4 F,4 | F,4 C,2 C,2 | C,4 E,4 | F,4 G,4- | G,4 C,4- | C,4 B,,4- | %14
w: ten vo-|gli'a gl'oc-|chi mie-|i, per- che|cru- da|mi se-|* i,|_ deh,|
w: ti stan-|no'in- tor-|no, e|ti fà'il crin|a- dor-||* no,|_ deh,|
 B,,4 z2 B,2 | F,3 G, D,2 B,,2 | F,3 G, D,2 _E,2 | D,8 | D,4 z2 G,2 | G,2 A,2 B,2 B,,2 | %20
w: _ deh,|ba- scia- mi, deh|ba- scia- mi ben|mi-|o, ch'al-|tro da te, ch'al-|
w: _ deh,|mo- stra- mi, deh,|mo- stra- mi'un bel|vi-|so, che|lie- to'an- dro, che|
 B,,2 C,2 D,4 | E,4 F,4 | D,4 G,4 | C,4 D,4- | D,4 !fermata!G,,4 :| %25
w: tro da te|non bra-|mo'e non|de- si-|* o.|
w: lie- to'an- dro|mo- ren-|do'in Pa-|ra- di-|* so.|

